X:87
T:Tommy's Gone Away
M:4/4
L:1/4
Q:1/4=120
K:A
EC EC|EF AA|BB d>c|(c B2)e|
cc B>A|FF EE|AA c>B|A3 z||
